src/topics/icons/falcor.svg

<svg height="299" preserveAspectRatio="xMidYMid" viewBox="0 0 256 299" width="256" xmlns="http://www.w3.org/2000/svg"><g transform="translate(7 191)"><path d="m181.222.804v.01l-60.144 35.725-.078-.047v-.004l-60.218-35.674-60.222 35.674 120.44 71.354 120.444-71.354z" fill="#4cad31"/><path d="m121 36.488 60.218 35.67-60.218 35.684z" fill="#64b32c"/><path d="m60.782.814v71.344l-60.222-35.67z" fill="#8bbe2d"/><path d="m121 36.488v71.354l-60.218-35.684z" fill="#76b828"/><path d="m181.222 72.158v-71.344l-60.222 35.674z" fill="#5db12e"/><path d="m60.782 72.158 60.296-35.619-60.296-35.725z" fill="#82bb24"/></g><g transform="translate(135)"><path d="m121 71.354-.007-.004v-.003l-.003.002-120.437-71.349v71.347l60.222 35.681v71.358l60.218 35.67v-142.697z" fill="#751f82"/><path d="m60.775 107.028 60.218 35.674v-71.355z" fill="#934c98"/><path d="m60.775 107.028-.004-71.354 60.229 35.68z" fill="#8a398d"/><path d="m60.775 178.386 60.218 35.67v-71.354z" fill="#b987bb"/><path d="m120.993 142.702-60.218 35.684v-71.358z" fill="#a466a7"/><path d="m60.771 35.674-60.218 35.673 60.222 35.681z" fill="#7b1f82"/></g><path d="m.008 71.35-.004-.003v.005l-.004.002.004.002v142.7l60.218-35.67v-71.358l60.225-35.681v-71.347z" fill="#0062ae"/><path d="m60.222 107.028-60.218 35.684v-71.365z" fill="#007ec6"/><path d="m120.447 71.347-60.222-35.673 60.222-35.674z" fill="#26b2e7"/><path d="m60.222 107.028-60.222-35.674 60.225-35.68z" fill="#008bd0"/><path d="m.004 142.712 60.218 35.674v-71.358z" fill="#0071bb"/><path d="m60.225 35.674-.003 71.354 60.225-35.681z" fill="#009ddc"/></svg>

<?xml version="1.0" encoding="UTF-8" standalone="no"?>
<svg width="256px" height="299px" viewBox="0 0 256 299" version="1.1" xmlns="http://www.w3.org/2000/svg" xmlns:xlink="http://www.w3.org/1999/xlink" preserveAspectRatio="xMidYMid">
	<g>
		<g transform="translate(7.000000, 191.000000)">
			<path d="M181.222,0.804 L181.222,0.814 L121.078,36.539 L121,36.492 L121,36.488 L60.782,0.814 L0.56,36.488 L121,107.842 L241.444,36.488 L181.222,0.804" fill="#4CAD31"></path>
			<path d="M121,36.488 L181.218,72.158 L121,107.842 L121,36.488" fill="#64B32C"></path>
			<path d="M60.782,0.814 L60.782,72.158 L0.56,36.488 L60.782,0.814" fill="#8BBE2D"></path>
			<path d="M121,36.488 L121,107.842 L60.782,72.158 L121,36.488" fill="#76B828"></path>
			<path d="M181.222,72.158 L181.222,0.814 L121,36.488 L181.222,72.158" fill="#5DB12E"></path>
			<path d="M60.782,72.158 L121.078,36.539 L60.782,0.814 L60.782,72.158" fill="#82BB24"></path>
		</g>
		<g transform="translate(135.000000, 0.000000)">
			<path d="M121,71.354 L120.993,71.35 L120.993,71.347 L120.99,71.349 L0.553,0 L0.553,71.347 L60.775,107.028 L60.775,178.386 L120.993,214.056 L120.993,71.359 L121,71.354" fill="#751F82"></path>
			<path d="M60.775,107.028 L120.993,142.702 L120.993,71.347 L60.775,107.028" fill="#934C98"></path>
			<path d="M60.775,107.028 L60.771,35.674 L121,71.354 L60.775,107.028" fill="#8A398D"></path>
			<path d="M60.775,178.386 L120.993,214.056 L120.993,142.702 L60.775,178.386" fill="#B987BB"></path>
			<path d="M120.993,142.702 L60.775,178.386 L60.775,107.028 L120.993,142.702" fill="#A466A7"></path>
			<path d="M60.771,35.674 L0.553,71.347 L60.775,107.028 L60.771,35.674" fill="#7B1F82"></path>
		</g>
		<g>
			<path d="M0.008,71.35 L0.004,71.347 L0.004,71.352 L0,71.354 L0.004,71.356 L0.004,214.056 L60.222,178.386 L60.222,107.028 L120.447,71.347 L120.447,0 L0.008,71.35" fill="#0062AE"></path>
			<path d="M60.222,107.028 L0.004,142.712 L0.004,71.347 L60.222,107.028" fill="#007EC6"></path>
			<path d="M120.447,71.347 L60.225,35.674 L120.447,0 L120.447,71.347" fill="#26B2E7"></path>
			<path d="M60.222,107.028 L0,71.354 L60.225,35.674 L60.222,107.028" fill="#008BD0"></path>
			<path d="M0.004,142.712 L60.222,178.386 L60.222,107.028 L0.004,142.712" fill="#0071BB"></path>
			<path d="M60.225,35.674 L60.222,107.028 L120.447,71.347 L60.225,35.674" fill="#009DDC"></path>
		</g>
	</g>
</svg>
